dist/img/svg/location.svg

<svg width="14" height="18" viewBox="0 0 14 18" xmlns="http://www.w3.org/2000/svg">
<path d="M6.82031 0C5.90625 0 5.02734 0.1875 4.18359 0.5625C3.35156 0.925781 2.63086 1.41797 2.02148 2.03906C1.41211 2.64844 0.919922 3.375 0.544922 4.21875C0.181641 5.0625 0 5.94141 0 6.85547C0 7.37109 0.0703125 7.91016 0.210938 8.47266C0.351562 9.03516 0.515625 9.55664 0.703125 10.0371C0.890625 10.5176 1.16016 11.0508 1.51172 11.6367C1.86328 12.2227 2.17383 12.7207 2.44336 13.1309C2.72461 13.5293 3.09961 14.0215 3.56836 14.6074C4.03711 15.1816 4.40039 15.6211 4.6582 15.9258C4.91602 16.2305 5.2793 16.6523 5.74805 17.1914C5.88867 17.3555 5.99414 17.4727 6.06445 17.543C6.08789 17.5781 6.12891 17.6191 6.1875 17.666C6.24609 17.7246 6.35156 17.7949 6.50391 17.877C6.65625 17.959 6.80273 18 6.94336 18H6.99609C7.32422 18 7.61719 17.8477 7.875 17.543C11.625 13.2305 13.5 9.66797 13.5 6.85547C13.5 4.89844 12.9023 3.27539 11.707 1.98633C10.4648 0.662109 8.83594 0 6.82031 0ZM7.03125 16.7871C7.01953 16.8105 6.99609 16.834 6.96094 16.8574C6.9375 16.834 6.91406 16.8105 6.89062 16.7871L6.5918 16.4531C6.14648 15.9375 5.80078 15.5391 5.55469 15.2578C5.30859 14.9648 4.96289 14.543 4.51758 13.9922C4.07227 13.4414 3.7207 12.9785 3.46289 12.6035C3.20508 12.2168 2.90625 11.7539 2.56641 11.2148C2.22656 10.6641 1.96289 10.1719 1.77539 9.73828C1.59961 9.29297 1.44727 8.81836 1.31836 8.31445C1.18945 7.79883 1.125 7.3125 1.125 6.85547C1.125 5.83594 1.38281 4.88672 1.89844 4.00781C2.41406 3.11719 3.10547 2.41406 3.97266 1.89844C4.85156 1.38281 5.80078 1.125 6.82031 1.125C7.74609 1.125 8.57227 1.28906 9.29883 1.61719C10.0254 1.93359 10.6055 2.36719 11.0391 2.91797C11.4844 3.46875 11.8184 4.07812 12.041 4.74609C12.2637 5.41406 12.375 6.11719 12.375 6.85547C12.375 9.38672 10.5938 12.6973 7.03125 16.7871ZM6.76758 3.39258C6.4043 3.39258 6.04688 3.45117 5.69531 3.56836C5.35547 3.68555 5.04492 3.84961 4.76367 4.06055C4.49414 4.25977 4.25391 4.5 4.04297 4.78125C3.83203 5.0625 3.66797 5.37305 3.55078 5.71289C3.44531 6.05273 3.39258 6.4043 3.39258 6.76758C3.39258 7.70508 3.7207 8.50195 4.37695 9.1582C5.04492 9.81445 5.8418 10.1426 6.76758 10.1426C7.70508 10.1426 8.50195 9.81445 9.1582 9.1582C9.81445 8.50195 10.1426 7.70508 10.1426 6.76758C10.1426 6.31055 10.0547 5.87695 9.87891 5.4668C9.70312 5.04492 9.46289 4.6875 9.1582 4.39453C8.85352 4.08984 8.49023 3.84961 8.06836 3.67383C7.6582 3.48633 7.22461 3.39258 6.76758 3.39258ZM6.76758 9.01758C6.14648 9.01758 5.61328 8.79492 5.16797 8.34961C4.72266 7.9043 4.5 7.37109 4.5 6.75C4.5 6.12891 4.7168 5.60156 5.15039 5.16797C5.5957 4.72266 6.12891 4.5 6.75 4.5C7.37109 4.5 7.89844 4.72266 8.33203 5.16797C8.77734 5.60156 9 6.12891 9 6.75C9 7.52344 8.68945 8.13867 8.06836 8.5957C7.68164 8.87695 7.24805 9.01758 6.76758 9.01758Z"/>
</svg>

<svg width="14" height="18" viewBox="0 0 14 18" xmlns="http://www.w3.org/2000/svg"><path d="M6.82 0c-.914 0-1.793.188-2.636.563A6.814 6.814 0 0 0 2.02 2.038 7.157 7.157 0 0 0 .545 4.22 6.6 6.6 0 0 0 0 6.855c0 .516.07 1.055.21 1.618.142.562.306 1.084.493 1.564.188.48.457 1.014.809 1.6.351.586.662 1.084.931 1.494.282.398.657.89 1.125 1.476.47.575.832 1.014 1.09 1.319.258.304.621.726 1.09 1.265.14.165.246.282.316.352a.602.602 0 0 0 .123.123c.06.059.165.129.317.211a.927.927 0 0 0 .44.123h.052c.328 0 .621-.152.879-.457C11.625 13.23 13.5 9.668 13.5 6.855c0-1.957-.598-3.58-1.793-4.869C10.465.662 8.836 0 6.82 0zm.211 16.787a.199.199 0 0 1-.07.07l-.07-.07-.3-.334c-.445-.515-.79-.914-1.036-1.195a93.644 93.644 0 0 1-1.037-1.266 23.306 23.306 0 0 1-1.055-1.389 66.38 66.38 0 0 1-.897-1.388 11.78 11.78 0 0 1-.79-1.477c-.176-.445-.329-.92-.458-1.424a6.026 6.026 0 0 1-.193-1.459c0-1.02.258-1.968.773-2.847a5.776 5.776 0 0 1 2.075-2.11 5.53 5.53 0 0 1 2.847-.773c.926 0 1.752.164 2.479.492.726.317 1.306.75 1.74 1.301.445.55.78 1.16 1.002 1.828.223.668.334 1.371.334 2.11 0 2.53-1.781 5.841-5.344 9.931zM6.768 3.393c-.364 0-.721.058-1.073.175A3.5 3.5 0 0 0 3.55 5.713c-.105.34-.157.691-.157 1.055 0 .937.328 1.734.984 2.39.668.656 1.465.985 2.39.985.938 0 1.735-.329 2.391-.985.656-.656.985-1.453.985-2.39 0-.457-.088-.891-.264-1.301a3.143 3.143 0 0 0-.72-1.072 3.337 3.337 0 0 0-1.09-.721 3.092 3.092 0 0 0-1.301-.281zm0 5.625a2.182 2.182 0 0 1-1.6-.668 2.182 2.182 0 0 1-.668-1.6c0-.621.217-1.148.65-1.582a2.182 2.182 0 0 1 1.6-.668c.621 0 1.148.223 1.582.668.445.434.668.96.668 1.582 0 .773-.31 1.389-.932 1.846-.386.281-.82.422-1.3.422z"/></svg>
